src/assets/svg/ic_iw_active_circle_phone_voice.svg

<svg xmlns="http://www.w3.org/2000/svg" width="16" height="16">
    <path d="M8 1.1a6.9 6.9 0 10.002 13.802A6.9 6.9 0 008 1.1zm3.401 10.869l-.312.35c-.361.363-.834.617-1.243.684-1.013.162-2.956-.434-4.651-2.129l-.008-.01a.073.073 0 00-.009-.008C3.482 9.16 2.888 7.219 3.051 6.205c.064-.41.32-.881.682-1.244l.311-.35a.501.501 0 01.706-.016l1.38 1.379a.505.505 0 01-.017.708l-.195.195-.119.117-.155.152c-.533.534-.553 1.375-.046 1.885l1.148 1.148.231.229c.509.508 1.351.488 1.884-.043l.275-.271.195-.195a.505.505 0 01.706-.018l1.379 1.381a.5.5 0 01-.015.707zM7.012 6.25c0-.408.331-.738.738-.738a2.865 2.865 0 012.862 2.863.737.737 0 01-1.475 0A1.39 1.39 0 007.75 6.986a.738.738 0 01-.738-.736zm5.404 2.861a.737.737 0 01-.737-.736 3.934 3.934 0 00-3.929-3.93.738.738 0 110-1.474 5.41 5.41 0 015.404 5.404.738.738 0 01-.738.736z" fill="#3d464d"/>
</svg>

<?xml version="1.0" encoding="iso-8859-1"?>
<!-- Generator: Adobe Illustrator 16.0.4, SVG Export Plug-In . SVG Version: 6.00 Build 0)  -->
<!DOCTYPE svg PUBLIC "-//W3C//DTD SVG 1.1//EN" "http://www.w3.org/Graphics/SVG/1.1/DTD/svg11.dtd">
<svg version="1.1" id="artwork" xmlns="http://www.w3.org/2000/svg" xmlns:xlink="http://www.w3.org/1999/xlink" x="0px" y="0px"
	 width="16px" height="16px" viewBox="0 0 16 16" style="enable-background:new 0 0 16 16;" xml:space="preserve">
<g>
	<path style="fill:#3D464D;" d="M8,1.1c-3.811,0-6.9,3.09-6.9,6.902C1.1,11.811,4.189,14.9,8,14.9c3.811,0,6.9-3.09,6.9-6.898
		C14.9,4.189,11.811,1.1,8,1.1z M11.401,11.969l-0.312,0.35c-0.361,0.363-0.834,0.617-1.243,0.684
		c-1.013,0.162-2.956-0.434-4.651-2.129c-0.003-0.004-0.006-0.008-0.008-0.01s-0.006-0.006-0.009-0.008
		C3.482,9.16,2.888,7.219,3.051,6.205c0.064-0.41,0.32-0.881,0.682-1.244l0.311-0.35c0.201-0.199,0.516-0.205,0.706-0.016
		l1.38,1.379C6.318,6.166,6.312,6.48,6.113,6.682L5.918,6.877L5.799,6.994L5.644,7.146C5.111,7.68,5.091,8.521,5.598,9.031
		l1.148,1.148l0.231,0.229c0.509,0.508,1.351,0.488,1.884-0.043l0.275-0.271l0.195-0.195c0.198-0.197,0.515-0.205,0.706-0.018
		l1.379,1.381C11.607,11.453,11.6,11.77,11.401,11.969z M7.012,6.25c0-0.408,0.331-0.738,0.738-0.738
		c1.578,0,2.862,1.283,2.862,2.863c0,0.406-0.331,0.736-0.737,0.736c-0.407,0-0.738-0.33-0.738-0.736
		c0-0.766-0.623-1.389-1.387-1.389C7.343,6.986,7.012,6.656,7.012,6.25z M12.416,9.111c-0.406,0-0.737-0.33-0.737-0.736
		c0-2.168-1.763-3.93-3.929-3.93c-0.407,0-0.738-0.332-0.738-0.738S7.343,2.971,7.75,2.971c2.979,0,5.404,2.424,5.404,5.404
		C13.154,8.781,12.823,9.111,12.416,9.111z"/>
</g>
</svg>
